findly-builder/apps/searchassist/src/assets/images/icons/viewPw.svg.svg

<svg width="16" height="11" viewBox="0 0 16 11" fill="none" xmlns="http://www.w3.org/2000/svg">
<path d="M7.99995 0C6.58133 0 5.25844 0.360852 4.15019 0.987411C3.91011 1.12314 3.84769 1.43449 3.99968 1.66463C4.15188 1.89509 4.46133 1.95656 4.70332 1.82347C5.64574 1.30517 6.77818 1 7.99995 1C9.23483 1 10.3793 1.31191 11.3278 1.84073C11.5689 1.97513 11.8785 1.91575 12.0322 1.68653C12.1859 1.45731 12.1255 1.14529 11.886 1.00808C10.7702 0.368768 9.4332 0 7.99995 0ZM2.40453 4.80604C2.28743 4.55585 2.00623 4.4132 1.74439 4.5012C1.48307 4.58903 1.34043 4.87327 1.45826 5.12249C1.63518 5.4967 1.86201 5.8469 2.10932 6.18359L0.999947 7.29297C0.804705 7.48821 0.804705 7.80476 0.999947 8C1.19519 8.19524 1.51174 8.19524 1.70698 8L2.79487 6.91211C3.29032 7.396 3.85834 7.79803 4.50776 8.12305L3.94091 9.49341C3.83543 9.74843 3.95654 10.0407 4.21149 10.1463C4.46673 10.2521 4.75937 10.1308 4.86488 9.87542L5.41792 8.53711C6.07176 8.76083 6.76944 8.884 7.49995 8.92969V10.3984C7.49995 10.6746 7.7238 10.8984 7.99995 10.8984C8.27609 10.8984 8.49995 10.6746 8.49995 10.3984V8.92969C9.23048 8.88398 9.92813 8.76093 10.582 8.53711L11.135 9.87542C11.2405 10.1308 11.5332 10.2521 11.7884 10.1463C12.0434 10.0407 12.1645 9.74843 12.059 9.49341L11.4921 8.12305C12.1415 7.79791 12.7096 7.39611 13.205 6.91211L14.2929 8C14.4882 8.19524 14.8047 8.19524 14.9999 8C15.1952 7.80476 15.1952 7.48821 14.9999 7.29297L13.8906 6.18359C14.1379 5.84688 14.3646 5.49583 14.5415 5.12116C14.6593 4.8717 14.5163 4.58733 14.2546 4.49993C13.9931 4.41259 13.7127 4.55518 13.5959 4.80492C12.7361 6.6431 10.5736 8 7.99995 8C5.42675 8 3.26468 6.64362 2.40453 4.80604Z" fill="#202124"/>
</svg>

<svg width="16" height="11" fill="none" xmlns="http://www.w3.org/2000/svg"><path d="M8 0a7.82 7.82 0 0 0-3.85.987.473.473 0 0 0-.15.678c.152.23.461.292.703.158A6.846 6.846 0 0 1 8 1a6.84 6.84 0 0 1 3.328.84c.24.135.55.076.704-.153a.473.473 0 0 0-.146-.679A7.816 7.816 0 0 0 8 0ZM2.405 4.806c-.118-.25-.399-.393-.66-.305-.262.088-.405.372-.287.621.177.375.404.725.651 1.062L1 7.293A.5.5 0 1 0 1.708 8l1.088-1.088a6.75 6.75 0 0 0 1.713 1.211l-.567 1.37a.5.5 0 1 0 .924.382l.553-1.338A7.944 7.944 0 0 0 7.5 8.93v1.468a.5.5 0 1 0 1 0V8.93a7.941 7.941 0 0 0 2.082-.393l.553 1.338a.5.5 0 1 0 .924-.382l-.567-1.37a6.75 6.75 0 0 0 1.713-1.21L14.293 8A.5.5 0 1 0 15 7.293l-1.11-1.11a6.34 6.34 0 0 0 .651-1.062c.118-.25-.025-.534-.286-.621-.262-.087-.542.055-.66.305C12.737 6.643 10.575 8 8 8 5.427 8 3.265 6.644 2.405 4.806Z" fill="#202124"/></svg>
